docs/img/icons/background/cross.svg

<svg width="222" height="369" viewBox="0 0 222 369" fill="none" xmlns="http://www.w3.org/2000/svg">
<path d="M164.794 112.221L107.374 145.372L36.2226 22.1336C26.9299 6.03832 13.0514 -3.34583 5.1973 1.18876C-2.65683 5.72334 -1.46917 22.4345 7.82346 38.5299L78.9753 161.769L21.5559 194.92C14.0568 199.249 15.8406 216.378 25.5731 233.235C35.3056 250.093 49.2478 260.202 56.7469 255.872L114.166 222.721L185.318 345.96C194.611 362.055 208.489 371.439 216.343 366.905C224.198 362.37 223.01 345.659 213.717 329.564L142.565 206.325L199.985 173.174C207.484 168.844 205.7 151.715 195.968 134.858C186.235 118.001 172.293 107.892 164.794 112.221Z" fill="#00C35B"/>
</svg>

<svg width="222" height="369" fill="none" xmlns="http://www.w3.org/2000/svg"><path d="M164.794 112.221l-57.42 33.151L36.223 22.134C26.93 6.038 13.05-3.346 5.197 1.189c-7.854 4.534-6.666 21.245 2.626 37.34l71.152 123.24-57.42 33.151c-7.498 4.329-5.714 21.458 4.018 38.315 9.733 16.858 23.675 26.967 31.174 22.637l57.419-33.151 71.152 123.239c9.293 16.095 23.171 25.479 31.025 20.945 7.855-4.535 6.667-21.246-2.626-37.341l-71.152-123.239 57.42-33.151c7.499-4.33 5.715-21.459-4.017-38.316-9.733-16.857-23.675-26.966-31.174-22.637z" fill="#00C35B"/></svg>
